X: 11392
T: WHEN THE WORLD FIRST BEGAN
C: Attwood.
Q: "With spirit."
%R: jig
B: W. Hamilton "Universal Tune-Book" Vol. 1 Glasgow 1844 p.139 #2
S: http://imslp.org/wiki/Hamilton's_Universal_Tune-Book_(Various)
Z: 2016 John Chambers <jc:trillian.mit.edu>
M: 6/8
L: 1/8
K: Eb
% - - - - - - - - - - - - - - - - - - - - - - - - -
B/B/ |\
e>fg c>de | B>cA G2 E/E/ |\
B>=AB c>Bc | dBB HB2 B/B/ |\
B>cd e>de | f>ef Hg2 e/e/ |\
c>de B2 g/g/ | f>ef e2 :|
% - - - - - - - - - - - - - - - - - - - - - - - - -

%%sep 1 1 500
%%sep 1 1 500

